X: 09097
T: ROBIN'S TUNE
C: Bob McQuillen 7 Nov 92
B: Bob's Note Book 9 #97
%R: reel
Z: 2018 John Chambers <jc:trillian.mit.edu>
L: 1/8
M: C
K: D
dB |\
Adfa geag | f2d2 d2ef | gagf edBd | c2A2 A2FA |
BAGF G2ed | cdcB A2df | gfed ceag | f2d2 d2 :|
|: FA |\
dAFA BdAG | F2D2 D2FA | dAFA GABG | F2E2 E2FA |
d2dc BABc | d2dB A2AG | FAdf gecd | e2d2 d2 :|
%%begintext align
%% Robin Slieth is the other half of that
%% dynamic duo of twin boys I told you about in Connor's Tune; their
%% folks are Mary Des Roziers and Rod Slieth, and they are great kids.
%% I'm so glad you and Connor each have your own tune, Robin -
%% perhaps some day I'll see you both on the floor in Nelson dancing to them!
%%endtext

%%sep 1 1 500

%%sep 1 1 500

